X:155
T: LANGE LANGE LISE
N: K2263
O: Europa, Mitteleuropa, Deutschland, Schleswig
R: Kinder - Lied, Reigen, Tanz - Spiel
M: 2/4
L: 1/8
K: C
 | GGAA | G2E2 |
GGAA | G2E2 |
GGGG | B2B
A | GGFD | C2z2

@@@ Tune index: 7492
